packages/core/src/svgs/tokens/branded/LUCA.svg

<svg width="24" height="24" viewBox="0 0 24 24" fill="none" xmlns="http://www.w3.org/2000/svg">
<path d="M16.411 4.35293C16.6176 4.35315 16.8206 4.29896 16.9996 4.19584C17.1786 4.09272 17.3272 3.94429 17.4306 3.76548C17.534 3.58666 17.5885 3.38377 17.5887 3.17722C17.5888 2.97065 17.5346 2.76769 17.4314 2.58875C17.3282 2.4098 17.1797 2.26118 17.0008 2.15784C16.822 2.05449 16.6191 2.00004 16.4125 2C16.206 1.99995 16.003 2.05427 15.8241 2.15754C15.6451 2.2608 15.4966 2.40933 15.3933 2.58823H9.94043V3.7647H15.3933C15.5934 4.11763 15.9757 4.35293 16.411 4.35293ZM16.411 9.0588C16.6176 9.05902 16.8206 9.00483 16.9996 8.90172C17.1786 8.7986 17.3272 8.65017 17.4306 8.47135C17.534 8.29255 17.5885 8.08966 17.5887 7.88309C17.5888 7.67653 17.5346 7.47357 17.4314 7.29463C17.3282 7.11569 17.1797 6.96707 17.0008 6.86372C16.822 6.76036 16.6191 6.70593 16.4125 6.70587C16.206 6.70582 16.003 6.76016 15.8241 6.86342C15.6451 6.96667 15.4966 7.11521 15.3933 7.29411H9.94043V8.47057H15.3933C15.5934 8.82351 15.9757 9.0588 16.411 9.0588Z" fill="#FACA8C"/>
<path d="M18.7642 22C19.4138 22 19.9406 21.4732 19.9406 20.8234C19.9406 20.1738 19.4138 19.647 18.7642 19.647C18.1144 19.647 17.5876 20.1738 17.5876 20.8234C17.5876 21.4732 18.1144 22 18.7642 22Z" fill="#FACA8C"/>
<path d="M19.3521 6.70586C19.5587 6.70607 19.7617 6.6519 19.9407 6.54878C20.1197 6.44564 20.2683 6.29722 20.3718 6.11841C20.4751 5.9396 20.5298 5.73671 20.5298 5.53014C20.5299 5.32359 20.4757 5.12063 20.3725 4.94168C20.2694 4.76274 20.1209 4.61412 19.942 4.51076C19.7632 4.40741 19.5602 4.35298 19.3536 4.35292C19.1471 4.35287 18.9442 4.4072 18.7652 4.51046C18.5864 4.61372 18.4377 4.76227 18.3345 4.94115H9.94043V6.11762H18.3345C18.5345 6.47057 18.9169 6.70586 19.3521 6.70586Z" fill="#FACA8C"/>
<path fill-rule="evenodd" clip-rule="evenodd" d="M8.36432 2.58823C6.96432 2.58823 5.82316 3.51174 5.82316 4.88233C4.59963 4.88233 3.47021 6.04116 3.47021 7.23527V16.8236C3.47021 18.0588 4.49374 19.0588 5.75257 19.0588C5.75257 20.3941 6.85844 21.4117 8.22315 21.4117H18.0878C18.2703 21.6765 18.4173 21.4117 18.7644 21.4117C19.3231 21.4117 19.9408 21.3999 19.9408 20.8529C19.9408 20.3058 19.3231 20.2353 18.7644 20.2353C18.3879 20.2353 18.2232 19.9412 18.0467 20.2353H8.22315C7.45256 20.2353 6.82903 19.8117 6.82903 19.0588H15.8231V15.5294H9.35254V2.58823H8.36432ZM8.17609 3.76469V15.5294H6.99962V4.88233C6.99962 4.19998 7.47609 3.76469 8.17609 3.76469ZM5.82316 6.11762C5.19374 6.11762 4.64668 6.62351 4.64668 7.23527V17.0117C4.68786 17.5647 5.11727 17.8823 5.68785 17.8823H14.6467V16.7058H5.82316V6.11762Z" fill="#FACA8C"/>
</svg>

<svg xmlns="http://www.w3.org/2000/svg" width="24" height="24" fill="none" viewBox="0 0 24 24">
    <path fill="#FACA8C" d="M16.411 4.353a1.177 1.177 0 1 0-1.018-1.765H9.94v1.177h5.453c.2.353.583.588 1.018.588m0 4.706a1.177 1.177 0 1 0-1.018-1.765H9.94v1.177h5.453c.2.353.583.588 1.018.588M18.764 22a1.177 1.177 0 1 0 0-2.353 1.177 1.177 0 0 0 0 2.353"/>
    <path fill="#FACA8C" d="M19.352 6.706a1.177 1.177 0 1 0-1.018-1.765H9.94v1.177h8.394c.2.353.583.588 1.018.588"/>
    <path fill="#FACA8C" fill-rule="evenodd" d="M8.364 2.588c-1.4 0-2.54.924-2.54 2.294-1.224 0-2.354 1.16-2.354 2.353v9.589c0 1.235 1.024 2.235 2.283 2.235 0 1.335 1.105 2.353 2.47 2.353h9.865c.182.265.33 0 .676 0 .56 0 1.177-.012 1.177-.56 0-.546-.618-.617-1.177-.617-.376 0-.54-.294-.717 0H8.223c-.77 0-1.394-.423-1.394-1.176h8.994v-3.53h-6.47V2.59zm-.188 1.177v11.764H7V4.882c0-.682.476-1.117 1.176-1.117M5.823 6.118c-.63 0-1.176.506-1.176 1.117v9.777c.04.553.47.87 1.04.87h8.96v-1.176H5.823z" clip-rule="evenodd"/>
</svg>
